X:1
T:Mountain Road, The
C:Michael Gorman
D:Sharon Shannon.
Z:id:hn-reel-79
R:reel
M:4/4
L:1/8
K:D
F2AF BFAF|~F2AF EFDE|1 F2AF BFAF|G2FG EDDE:|2 FA~A2 BAFB|ABde fdec|]
~d3B A2FA|~d3e fgfe|1 ~d3B A2FA|GEFD EDB,D:|2 defd AFDF|GEFD EDB,D|]
</abc>
